X: 716
T: The Kesh Jig
B: jims roots
B: ralph
B: nick
M:6/8
L:1/8
R: jig
Q: 3/8=100
K:G
V:1 
D | "G" G2G GAB | "D" A2A  ABd  | "C" edd "G" gdd | "C" edB "D" dBA |
    "G" G2G GAB | "D" A2A  ABd  | "C" edd "G" gdB | "D" AGF "G" G2  :|
A | "G" ~B3  dBd | "C" ege "G" dBA | "G"~B3   dBG  | "D" ABA   AGA  |
    "G" B2B dBd | "C" ege "G" dBd | "C"gfg "D"aga | "G"bgf   g2   :|
% abcbook-tune_id 6298c25dc932f65fb37aec3e


% abcbook-boost 0
% abcbook-tablature 
% abcbook-transpose 
% abcbook-lastupdated 1665491359997
% abcbook-soundfonts 
% abcbook-repeats 1


